X: 26949
T: Miss Campbell's Awkward Adolescant Advances
R: strathspey
M: 4/4
K: Dmajor
|:A2 F>A d<A f>e|d<A f>A B4|
A2 F>A d<A f>e|f<a f>d =c<A e>A|
A2 F>A d<A f>e|d<A f>A B<G d>G|
A<F d>F G<d G>E|F<D D>C D4:|
|:E2 A>c B<A e>A|F<A B>A f<A B>A|
E2 A>c B<A e>A|F<A f>A a<A f>A|
E2 A>c B<A e>A|F<A B>A f<A f>a|
g<B d>g f<A d2|e>B c<A A>d D2:|

